X:1
T:James Gibb editions
T:Veritas mea - Foggia
T:#
%%score [ 1 2 3 4 ]
L:1/8
Q:1/4=100
M:4/4
K:A
V:1 treble nm="Soprano" snm="S"
V:2 treble nm="Alto" snm="A"
V:3 treble-8 nm="Tenor" snm="T"
V:4 bass nm="Bass" snm="B"
V:1
"^Francesco Foggia\n(1603-88)""^Veritas mea"!mf!"^allegro moderato""^Psalm 88: 25 (Vulgate)" B6 B2 | %1
w: Ve- ri-|
 B4 !>!c4 |"^,"!<(! B2 EF GA B2- | B!<)!E e4!>(! ^d2 |"^," e2!>)! !>!E3 EFG | %5
w: tas me-|a et mi- se- ri- cor\-|* di- a me-|a, et mi- se- ri-|
[M:4/4] A>A"^," G2 (B2 A2 | G3 F/E/ F2 B2- | B2 ^A2!>(! B4) | G4!>)! z4 |!mf! B3 B B2 (!>!c2- | %10
w: cor- di- a me\- *|||a,|ve- ri- tas me\-|
 cB e4 ^d2) |"^," e2 E3 EFG | A>A G2"^," GABB | !>!A>A G2 !>!B4 | B4 z2 B2- | %15
w: |a et mi- se- ri-|cor- di- a, et mi- se- ri-|cor- di- a me-|a, et|
!<(! Bc^de!<)!!f! f>f B2- |!>(! B2 ^A2!>)! B4 | z2!f! B4 B2 |!<(! B4!<)! !>!c4 | B4 z4 | %20
w: * mi- se- ri\- cor- di- a|* me- a,|ve- ri-|tas me-|a,|
 z2!f! e4 e2 | e4 !>!f4 |"^," e2 E3 EFG | A>A"^," G2 EFGA | B>B"^," G2 (!>!A4- | %25
w: ve- ri-|tas me-|a et mi- se- ri-|cor- di- a, et mi- se- ri-|cor- di- a me\-|
 A2 G2)!>(! A4-!>)! | A8"^," |!mf! E3 F G2 G2 | A3 A B4"^," | (cdec ^d2 e2- | %30
w: * * a||et mi- se- ri-|cor- di- a|me\- * * * * *|
!>(! e2 ^d2) e4!>)!"^meno allegro" |[Q:1/4=95] z8 |!p! !courtesy!=d2 (ABcd e2- | e2)"^," d4 c2 | %34
w: * * a||cum i\- * * * *|* pso, cum|
"^cresc." (d6 c2- | cB/^A/ B4 A2) | %36
w: i\- *||
[Q:1/4=95]"^,"[Q:1/4=95][Q:1/4=95][Q:1/4=95] B4"^più mosso"[Q:1/4=100] c2 (!>!e2- | e2 ^d2) e4 | %38
w: pso, cum i\-|* * pso,|
 z4!f! e4 | d4 !>!c3 c |"^," B4 (ABcd | %41
w: et|in no- mi-|ne me\- * * *|
[Q:1/4=100][Q:1/4=100][Q:1/4=100][Q:1/4=100] ed/c/ BA/G/ F2 E2 | A4) G4 | z4 e4 | d4 c3 c | %45
w: |* o,|et|in no- mi-|
 B4 (A4 | e4)"^," A2 d2 | cB A2 B4 | B4 z2 A2- | A2 F2 B3 A |"^," G2 A4 G2 | (F3 E/F/ G4 | %52
w: ne me\-|* o, in|no- mi- ne me-|o ex\-|* al- ta- bi-|tur cor- nu|e\- * * *|
 ^A2 B4 A2) | B4 z2 e2- | e2 d2 c3 c |"^," B6 (A2- | AB c2 A4 | B4 c4) | z2 d2 B2 !>!e2- | %59
w: |jus, et|* in no- mi-|ne me\-||* o|ex- al- ta\-|
 ed"^," c2 !>!B2 A2 | !>!G4"^," F2 A2- | AF !>!B3 A =G2 | !>!F2 E2 !>!F4 | %63
w: * bitur * cor- nu|e- jus, ex\-|* al- ta- bi- tur|cor- nu e-|
"^," F4 B2 !courtesy!^G2 | !>!c3 B"^," A2 d2 | B2 !>!e3 d"^," c2 | !>!B3 B !>!A4 |"^," F4 B2 G2 | %68
w: jus, ex- al-|ta- bi- tur, ex-|al- ta- bi- tur|cor- nu e-|jus, ex- al-|
 !>!c3 B"^," A2 d2 | B2 !>!e3 d c2- |"^," c2 (!>!d3 c B2) | f4 !>!e4 | d4 z2 B2 | G2 !>!c3 B A2 | %74
w: ta- bi- tur, ex-|al- ta- bi- tur|* cor\- * *|nu e-|jus, ex-|al- ta- bi- tur,|
 z2 d2 B2 !>!e2- | ed"^," c4 !>!B2- x | B2 ^A2!>(! !>!B4 | !fermata!B8!>)! || %78
w: ex- al- ta\-|* bi- tur cor\-|* nu e-|jus.|
"^più mosso""^at Easter"[Q:1/4=120] z2!f! B2 c2 e2 | (^defd"^," e4) | B4 G2 G2 | F4 z2 B2 | %82
w: Al- le- lu-|ja, * * * *|al- le- lu-|ja, al-|
 c2 e2 (^defd |"^," e2) e2 c2 c2 | B4 z4 | %85
w: le- lu- ja, * * *|* al- le- lu-|ja,|
[Q:1/4=125]"^un poco stringendo"[Q:1/4=125][Q:1/4=125][Q:1/4=125] e4 c2 c2 |"^," B2 B2 c2 e2 | %87
w: al\-- le- lu-|ja, al- le- lu-|
 (^defd e4) | B4 G2 G2 | F4 z4 | z4 B4 | G2 G2"^," F2 F2 | G2 B2 (ABcA | B2) e2 c2 c2 | B4 z4 | %95
w: ja, * * * *|al- le- lu-|ja,|al-|le- lu- ja, al-|le- lu- ja, * * *|* al- le- lu-|ja,|
 z2[Q:1/4=122] e2[Q:1/4=119] c2[Q:1/4=116] c2 |"^rit."[Q:1/4=114] B2[Q:1/4=110] B4[Q:1/4=106] ^A2 | %97
w: al- le- lu-|ja, al- le-|
[Q:1/4=102] B4[Q:1/4=100] !fermata!B4 |] %98
w: lu- ja.|
V:2
 z8 | z8 |!mf! E6 E2 |!<(! E4 !>!F4!<)! |"^," E4!<(! A,3!<)! B, | %5
w: ||Ve- ri-|tas me-|a et mi-|
[M:4/4]!<(! C^D E>!<)!E"^," D2 (!>!F2- | FE/^D/ E4 D2 | EC!>(! E4 ^D2)!>)! |"^," E2!mf! B,3 B,C^D | %9
w: se- ri- cor- di- a me\-|||a, et mi- se- ri-|
 E3 E B,2 z E- |!<(! EFGG!<)! A3 A | G4!>(! A4!>)! | E4 z2!mf! E2- | EE E2 !>!F4 | %14
w: cor- di- a, et|* mi- se- ri- cor- di-|a me-|a, ve\-|* ri- tas me-|
"^," E4!<(! B,3 C!<)! |!<(! ^DE F3!<)! F !courtesy!^D2 | E4"^," F4 | E3 F (G4- | G2 B3) A A2- | %19
w: a, et mi-|se- ri- cor- di- a|me- a,|et mi- se\-|* * ri- cor\-|
 A2 G2"^," A4 | E3 F GA B2 | A2 G2 !>!B4 | B4 z4 | z4!f! B,3 B, | B,2 (C3 B, A,2) | %25
w: * di- a|et mi- se- ri- cor-|di- a me-|a,|ve- ri-|tas me\- * *|
"^," B,4!mf! C3 D | E2 E2 (F3 G | A3 A)"^," B2 E2 | D2 C2 !>!E3 E |"^," E2 (A4 G2 | %30
w: a et mi-|se- ri- cor\- *|* di- a, mi-|se- ri- cor- di-|a me\- *|
!>(! F4 E2!>)!!p! G2 | A4"^," G2 E2 | F4"^," E2 A2 | (DEFG A4) |"^cresc." A6 =G2 | F8 | %36
w: * a cum|i- pso, cum|i- pso, cum|i\- * * * *|pso, cum|i-|
 F4 z2!f! !>!B2- | B2 A2 !>!G3 G | F4 z4 | z4 A4 | G4 F3 F |"^," E4 ^D2 E2- | E2 ^D2 EFGA | %43
w: pso, et|* in no- mi-|ne,|et|in no- mi-|ne me\- *||
 BA/G/ FG AE A2- |"^," A2 G2 AG/F/ EF | G2) B2 z2 A2 | G4 F3 F | E4 F4 |"^," E2 E3 D (C2 | %49
w: ||* o, et|in no- mi-|ne me-|o ex- al- ta\-|
 F3) E"^," ^D2 !>!E2 | E4 (!>!^D2 E2- | E2 ^D2 EF G2 | F4 E4 |"^," F2 B4 A2 | G>G"^," F2 A4 | %55
w: * bi- tur cor-|nu e\- *|||jus, et in|no- mi- ne, et|
 G4 F3 F | E4 (FG A2- | A2 G2"^," A2) A2 | F2 !>!B3 A G2- |"^," G2 !>!A2 G2 !>!F2- | %60
w: in no- mi-|ne me\- * *|* * o, ex-|al- ta- bi- tur|* cor- nu e\-|
 F2 ^E2)"^," F4 | F2 D2 !>!=E3 D | C2 B,C (D2 C2) | B,4 z4 | z2 A2 F2 !>!B2- | BA"^," G4 !>!A2- | %66
w: * * jus,|ex- al- ta- bi-|tur cor- nu e\- *|jus,|ex- al- ta\-|* bi- tur cor\-|
 A2 G2 (F"^,"E E2- | E2 ^D2) E4 | z2 A2 F2 !>!B2- | BA"^," G4 A2- | A2 F2 !>!B3 B, | C2 D2 =G4 | %72
w: * nu e\- * *|* * jus,|ex- al- ta\-|* bi- tur, ex\-|* al- ta- bi-|tur cor- nu|
 F4 F4 | z2 E2 C2 !>!F2- | FE D2 z2 E2 | C2 !>!F3 E"^," D2 x | E3 C!>(! F4 | !fermata!G8!>)! || %78
w: e- jus,|ex- al- ta\-|* bi- tur, ex-|al- ta- bi- tur|cor- nu e-|jus.|
 z8 |!f! B4 G2 G2 | F4 z4 | z8 | z2 E2 F2 A2 | (GABG"^," A4) | E4 C2 C2 | B,4 z4 | z8 | B4 G2 G2 | %88
w: |Al- le- lu-|ja,||al- le- lu-|ja, * * * *|al- le- lu-|ja,||al- le- lu-|
 F4 z4 | B4 G2 G2 | (EFGE F4) | z4 B4 | G2 G2 F4 | z8 | E4 C2 C2 | B,4 z2 A2 |"^rit." F2 D2 E3 E | %97
w: ja,|al- le- lu-|ja, * * * *|al-|le- lu- ja,||al- le- lu-|ja, al-|le- lu- ja, al-|
 F3 F !fermata!G4 |] %98
w: le- lu- ja.|
V:3
 z8 | z8 | z8 | z8 | z8 |[M:4/4][K:treble-8] z4!mf! B4- | B2!<(! B2 B4!<)! | !>!c4 B4 | %8
w: |||||Ve\-|* ri- tas|me- a|
 z4!mf! E3!<(! F | GA B>!<)!A G4- | G2 (c3 B A2) |"^," B4 A3 B | c^d e3 e B2 | %13
w: et mi|se- ri- cor- di- a|* me\- * *|a, et mi-|se- ri- cor- di- a|
 (c>^d e4 !courtesy!^d2) | e2"^cresc." B3 c^de | f3 f"^," ^d2 (f2- | f"^,"e e4 ^d2) | %17
w: me\- * * *|a, et mi- se- ri-|cor- di- a me\-||
"^," e2 E3 FGA | B2 G2 e4 | e2"^," E2 A3 B | cd e3 d B2 | (cd e4 ^d2) |"^," e4 A3 B | c^d e4 e2 | %24
w: a, et mi- se- ri-|cor- di- a|me- a, et mi-|se- ri- cor- di- a|me\- * * *|a, et mi-|se- ri- cor- di-|
"^," e2 (!>!e4 ^d2) |"^," e4!mf! A3 B | c!courtesy!=d (e3 d/c/ d2- | d2 c2)"^," B4 | (A3 G/F/ E4 | %29
w: a me\- *|a, et mi-|se- ri- cor\- * * *|* di- a|me\- * * *|
 A4 B4- |!>(! B4"^," E2!>)!!p! e2 | (ABcd e2) c2 | z8 |"^cresc." d4 e4 | f6 e2 | d3 c/B/ c4) | %36
w: |* a cum|i\- * * * * pso,||cum i-|pso, cum|i\- * * *|
 B4 z4 | z4!f! e4 | d4 c3 c |"^," B4 (ABcd | ed/c/ Bc dc/B/ A"^,"B | cB/A/ GA B2 c2 | B4) E4 | z8 | %44
w: pso,|et|in no- mi-|ne me\- * * *|||* o,||
 z4 A4 | G4 F3 F | E4 (DEFG | AB c2 B4) |"^," E4 A4 | F2 B3 A"^," G2 | !>!c2 A2 B4- | %51
w: et|in no- mi-|ne me\- * * *||o ex-|al- ta- bi- tur|cor- nu e\-|
 B4"^," E2 e2- | e2 d2 c3 c | B4 e2 c2 | z8 | (EFGA BA/G/ FG | A4)"^," D4 | d4 e4 | d2 B2 !>!e3 d | %59
w: * jus. et|* in no- mi-|ne me- o,||me\- * * * * * * * *|* o,|me- o,|ex- al- ta- bi-|
"^," c2 !>!A2 B4 | c2"^," C2 c2 A2 | !>!d3 c"^," B2 !>!c2 | ^A2 (B4 A2) | %63
w: tur cor- nu|e- jus, ex- al-|ta- bi- tur cor-|nu e\- *|
"^," B2"^," d2 x2!>(! e2-!>)! | ed"^," c2 d2 B2 | !>!e3 d"^," c4 | ^d2 e2 (!>!A4 | B4)"^," E2 e2 | %68
w: jus, ex- ta\-|* bi- tur, ex- al-|ta- bi- tur|cor- nu e\-|* jus, ex-|
 c2 !>!f3 e d2 | z4 e3 c | !>!f3 e"^," d2 !>!e2- | e2 d2 (c"^,"B B2- | B2 ^A2) B4 | z4 z2 A2 | %74
w: al- ta- bi- tur,|ex- al-|ta- bi- tur cor\-|* nu e\- * *|* * jus,|ex-|
 F !>!B3 A"^," G2 x | x (!>!A3 G F2 f2- | f2 e4)!>(! ^d2 | !fermata!e8!>)! || z8 | z2!f! B2 c2 e2 | %80
w: al- ta- bi- tur|cor\- * * *|* nu e-|jus.||Al- le- lu-|
 (^defd"^," e4) | B4 G2 G2 | A4 z4 | z2 E2 F2 A2 | (GABG A4) | z2 E2 F2 A2 | (GABG A4) | %87
w: ja, * * * *|al- le- lu-|ja,|al- le- lu-|ja, * * * *|al- le- lu-|ja, * * * *|
 z2 B2 c2 e2 | (^defd e E>FG/A/ | B4) z2 B2 | c2 e2 (^defd | e E>FG/A/ B4) | z2 e2 c2 c2 | %93
w: al- le- lu-|ja, * * * * * * * *|* al-|le- lu- ja, * * *||al- le- lu-|
"^," B2 E2 F2 A2 | (GABG"^," A4) | E4 F2 c2 |"^rit." d2 f3 e (e2- | e2 ^d2) !fermata!e4 |] %98
w: ja, al- le- lu-|ja, * * * *|al- le- lu-|ja, al- le- lu\-|* * ja.|
V:4
 z8 | z8 | z8 | z8 | z8 |[M:4/4] z8 | z8 | z8 | z8 |!f! E,6 E,2 | E,4 !>!F,4 | E,4 z4 | %12
w: |||||||||Ve- ri-|tas me-|a|
 z2!mf! E,3!<(! F,G,G, | A,>!<)!B, C2 B,4 | E,4 z2!f! B,2- | B,2 B,2 B,4 | !>!C4 B,4 | z4 E,3 F, | %18
w: et mi- se- ri-|cor- di- a me-|a, ve\-|* ri- tas|me- a|et mi-|
 G,2 G,2 A,3 A, | E,4 z2 A,,2- | A,,B,,C,D, E,3 E, | C,4 B,,4 | E,4 z4 | z2!f! E,4 E,2 | %24
w: se- ri- cor- di-|a, et|* mi- se- ri- cor- di-|a me-|a,|ve- ri-|
 E,4 !>!F,4 | E,4 z2!mf! A,2- | A,B,CC D3 D, | A,4"^," E,3 E, | F,G, A,3 A, G,2 | A,2 A,,2 z4 | %30
w: tas me-|a et|* mi- se- ri- cor- di-|a, et mi-|se- ri- cor- di- a|me- a|
 z4 z2!p! E,2 | F,4 E,2 A,2 | (D,E,F,G, A,4 | B,4 A,4) |"^," D,4"^cresc." E,4 | F,8- | %36
w: cum|i- pso, cum|i\- * * * *||pso, cum|i-|
"^," B,,2!f! !>!B,2 A,2 !>!G,2- | G,G,"^," F,2 (E,F,G,A, | B,A,/G,/ F,G, A,E, A,2- | A,2 G,2) A,4 | %40
w: pso, et in no\-|* mi- ne me\- * * *||* * o,|
 z8 | z8 | z4!f! E4 | D4 C3 C |"^," B,4 (A,B,CD | ED/C/ B,C DA, D2- | D2"^," C2 DCA,B, | %47
w: ||et|in no- mi-|ne me\- * * *|||
 CD E4 ^D2) | E4 z4 | z8 | z8 | z8 | z4 z2 E2- | E2 D2 C3 C |"^," B,4 (A,B,CD | ED/C/ B,C D4- | %56
w: |o,||||et|* in no- mi-|ne me\- * * *||
 D2 C2 D3 C | B,4 A,4) | z8 | z8 | z4 F,4 | D,2 !>!=G,3 F, E,2 | !>!F,2 =G,2 !>!F,4 | %63
w: |* o,|||ex-|al- ta- bi- tur|cor- nu e-|
"^," B,,2 B,2 !courtesy!^G,2 C2- | CB, A,2 z4 | z8 | z8 | z2 B,2 G,2 !>!C2- | CB,"^," A,2 D2 B,2 | %69
w: jus, ex- al- ta\-|* bi- tur,|||ex- al- ta\-|* bi- tur, ex- al-|
 !>!E3 D"^," C2 A,2 | F,2 !>!B,3 A, G,2 | !>!^A,2 B,2 (!>!E,4 | F,4)"^," B,,4 | E,2 C,2 !>!F,3 E, | %74
w: ta- bi- tur, ex-|al- ta- bi- tur|cor- nu e\-|* jus,|ex- al- ta- bi-|
 D,4 E,4 | A,,4"^," B,,4 x | C,4!>(! B,,4 | !fermata!E,8!>)! ||!f! E4 C2 C2 | B,4 z4 | %80
w: tur cor-|nu, cor-|nu e-|jus.|Al- le- lu-|ja,|
 z2 B,,2 C,2 E,2 | (^D,E,F,D, E,4)"^," | A,4 F,2 F,2 | E,4 z4 | z2 E,2 F,2 A,2 | (G,A,B,G, A,4) | %86
w: al- le- lu-|ja, * * * *|al- le- lu-|ja,|al- le- lu-|ja, * * * *|
 z2 E2 C2 C2 | B,4 z4 | z2 B,,2 C,2 E,2 | (^D,E,F,D,"^," E,2) E,2 | C,2 C,2"^," B,,2 B,,2 | %91
w: al- le- lu-|ja,|al- le- lu-|ja, * * * * al-|le- lu- ja, al-|
 C,2 E,2 (^D,E,F,D, |"^," E,2) E,2 F,2 A,2 | (G,A,B,G, A,4) | z2 E,2 F,2 A,2 | (G,A,B,G,"^," A,4) | %96
w: le- lu- ja, * * *|* al- le- lu-|ja, * * * *|al- le- lu-|ja, * * * *|
"^rit." B,4 C4 | B,4 !fermata!E,4 |] %98
w: al- le-|lu- ja.|

